!!!COM: Palestrina, Giovanni Perluigi da
!!!OPR: Missa In semidupl. maj. (II)
!!!OMD: Credo
!!!OTL: Et incarnatus
**kern	**kern	**kern	**kern	**kern
*Ibass	*Itenor	*Itenor	*Icalto	*Icant
!Bassus	!Tenor 2	!Tenor 1	!Altus	!Cantus
*clefF4	*clefGv2	*clefGv2	*clefG2	*clefG2
*k[b-]	*k[b-]	*k[b-]	*k[b-]	*k[b-]
*F:ion	*F:ion	*F:ion	*F:ion	*F:ion
*M4/2	*M4/2	*M4/2	*M4/2	*M4/2
=49	=49	=49	=49	=49
0r	0r	0r	1r	1f
.	.	.	1c	2cc
.	.	.	.	2cc
=50	=50	=50	=50	=50
0r	0r	1r	2g	2b-
.	.	.	2g	2g
.	.	2r	2.f	[1a
.	.	2F	.	.
.	.	.	4d	.
=51	=51	=51	=51	=51
0r	0r	2c	4e	2a]
.	.	.	4f	.
.	.	2c	2.e	4g
.	.	.	.	4f
.	.	2B-	.	2.g
.	.	.	4d	.
.	.	2G	[2d	.
.	.	.	.	4f
=52	=52	=52	=52	=52
1r	0r	1A	2d]	2e
.	.	.	2c#	2a
1BB-	.	2r	2d	2f
.	.	2d	[2f	2b-
=53	=53	=53	=53	=53
2F	0r	2c	4f]	1a
.	.	.	4e	.
2F	.	2A	4c	.
.	.	.	4d	.
2E-	.	2B-	1e-	1g
2C	.	4c	.	.
.	.	4B-	.	.
=54	=54	=54	=54	=54
1D	2r	4A	1d	1f
.	.	4F	.	.
.	2F	2.f	.	.
1r	2c	.	2r	2.g
.	.	4e	.	.
.	2c	[2e	2c	.
.	.	.	.	4a
=55	=55	=55	=55	=55
0r	2B-	4e]	2f	1b-
.	.	4d	.	.
.	2G	1d	2g	.
.	2A	.	2e	1a
.	2A	2c#	2e	.
=56	=56	=56	=56	=56
2r	2.B-	1d	1d	1f
2BB-	.	.	.	.
.	4A	.	.	.
2.E-	4G	1B-	1r	1r
.	4F	.	.	.
.	[2G	.	.	.
4D	.	.	.	.
=57	=57	=57	=57	=57
2C	2G]	2e-	1r	0r
2BB-	2B-	2d	.	.
2F	2A	2c	2r	.
2D	[2B-	2d	2f	.
=58	=58	=58	=58	=58
2E-	2B-]	1c	2g	2r
2F	2A	.	1f	2cc
2BB-	1B-	1B-	.	1dd
[2B-	.	.	2d	.
=59	=59	=59	=59	=59
2B-]	1F	2r	1.f	1cc
2A	.	2c	.	.
1B-	1r	1d	.	1b-
.	.	.	2f	.
=60	=60	=60	=60	=60
1F	2r	1c	1f	1a
.	2c	.	.	.
1r	1d	1B-	1r	2g
.	.	.	.	[2f
=61	=61	=61	=61	=61
0r	2c	2A	2F	4f]
.	.	.	.	8e
.	.	.	.	8d
.	2B-	2G	2G	2e
.	2c	[1F	2A	[1f
.	2d	.	2B-	.
=62	=62	=62	=62	=62
0r	1c	1F]	2B-	0f]
.	.	.	2A	.
.	1d	2r	4B-	.
.	.	.	4c	.
.	.	2B-	4d	.
.	.	.	4e	.
=63	=63	=63	=63	=63
2r	2d	2B-	1f	0r
2FF	2c	2A	.	.
2GG	2B-	2G	2r	.
2AA	2A	[2F	2c	.
=64	=64	=64	=64	=64
2BB-	2G	4F]	2d	0r
.	.	8E	.	.
.	.	8D	.	.
2C	2G	2E	1c	.
1FF	4A	2F	.	.
.	4B-	.	.	.
.	4c	2C	[2f	.
.	4A	.	.	.
=65	=65	=65	=65	=65
0r	2B-	2D	2f]	1r
.	2c	2E	2e	.
.	2c	2F	2.d	2r
.	2B	2G	.	2g
.	.	.	4e	.
=66	=66	=66	=66	=66
1FF	1c	2F	2f	4a
.	.	.	.	4b-
.	.	2C	2f	4cc
.	.	.	.	4a
2GG	2r	2G	2d	2b-
2AA	2c	2E	2c	2a
=67	=67	=67	=67	=67
1BB-	2B-	4D	1d	2g
.	.	4E	.	.
.	2A	4F	.	1f
.	.	4D	.	.
1C	2G	4E	1c	.
.	.	4C	.	.
.	2G	2c	.	2e
=68	=68	=68	=68	=68
[0FF	[0F	[0A	[0c	[0f
=69	=69	=69	=69	=69
0FF]	0F]	0A]	0c]	0f]
*-	*-	*-	*-	*-
!!!CDT: 1525/^1526/-1594/2/2
!!!OCY: Italia
!!!AGN: Mass (Paraphrase)
!!!AST: renaissance, vocal
!!!ASW: Gregorian Mass
!!!PWK: Masses, Book Mantuan II
!!!RNB: Cadence finals: C
!!!YOR: Le Opere Complete, v. 19, p. 87
!!!YOO: Rome, Italy: Fratelli Scalera
!!!END: 1992//
!!!EED: John Miller
!!!YEC: Copyright 2000, John Miller
!!!YEN: United States of America
!!!YEM: Rights to all derivative electronic formats reserved.
!!!YEM: Refer to licensing agreement for further details.
!!!YEM: This file must be accompanied by the licensing agreement.
!!!YEM: A copy of the licensing agreement may be found at http://www.music-cog.ohio-state.edu/HumdrumDatabases/Palestrina/license.txt
!!!EMD: converted to Humdrum by Bret Aarden
